svgs/light/film.svg

<svg xmlns="http://www.w3.org/2000/svg" viewBox="0 0 512 512"><!--! Font Awesome Pro 6.4.2 by @fontawesome - https://fontawesome.com License - https://fontawesome.com/license (Commercial License) Copyright 2023 Fonticons, Inc. --><path d="M128 448V352 272H384v80 96H128zM384 240H128V160 64H384v96 80zM96 448H64c-17.7 0-32-14.3-32-32V368H96v80zM32 272H96v64H32V272zm64-96v64H32V176H96zM96 64v80H32V96c0-17.7 14.3-32 32-32H96zM416 336V272h64v64H416zm0 112V368h64v48c0 17.7-14.3 32-32 32H416zm0-272h64v64H416V176zm64-80v48H416V64h32c17.7 0 32 14.3 32 32zM448 32H64C28.7 32 0 60.7 0 96V416c0 35.3 28.7 64 64 64H448c35.3 0 64-28.7 64-64V96c0-35.3-28.7-64-64-64z"/></svg>

<svg xmlns="http://www.w3.org/2000/svg" viewBox="0 0 512 512"><!--! Font Awesome Pro 6.6.0 by @fontawesome - https://fontawesome.com License - https://fontawesome.com/license (Commercial License) Copyright 2024 Fonticons, Inc. --><path d="M128 448l0-96 0-80 256 0 0 80 0 96-256 0zM384 240l-256 0 0-80 0-96 256 0 0 96 0 80zM96 448l-32 0c-17.7 0-32-14.3-32-32l0-48 64 0 0 80zM32 272l64 0 0 64-64 0 0-64zm64-96l0 64-64 0 0-64 64 0zM96 64l0 80-64 0 0-48c0-17.7 14.3-32 32-32l32 0zM416 336l0-64 64 0 0 64-64 0zm0 112l0-80 64 0 0 48c0 17.7-14.3 32-32 32l-32 0zm0-272l64 0 0 64-64 0 0-64zm64-80l0 48-64 0 0-80 32 0c17.7 0 32 14.3 32 32zM448 32L64 32C28.7 32 0 60.7 0 96L0 416c0 35.3 28.7 64 64 64l384 0c35.3 0 64-28.7 64-64l0-320c0-35.3-28.7-64-64-64z"/></svg>
